**kern	**kern
*staff2	*staff1
*clefF4	*clefG2
*k[b-]	*k[b-]
*M3/4	*M3/4
=-	=-
8B-L	4c
8GJ	.
=128	=128
8AL	4f
8cJ	.
8B-L	4c
8AJ	.
8GL	(8.fL
8FJ	.
.	32eLL
.	32fJJJ
=129	=129
8EL	4g
8DJ	.
8CL	4c)
8BB-J	.
8AAL	(8.gL
8GGJ	.
.	32fLL
.	32gJJJ
=130	=130
8FFL	4a
8EEJ	.
8DDL	4f)
8CCJ	.
8BBB-L	4g 4b-
8GGGJ	.
=131	=131
8CC'L)	(4f 4a
(8CJ	.
8DL	4e) 4g
8CJ	.
8BBL	4cc
8BB-J)	.
=132	=132
(8AAL	(4cc
8FJ	.
8GGL	4b-
8EJ	.
8FFL	4a)
8FJ)	.
=133	=133
*^	*
(8BB-L	2.BB-	(4dd
8DJ	.	.
8F#L	.	8ccL
8GJ	.	8b-J
8AL	.	8aL
8B-J)	.	8gJ)
*v	*v	*
=134	=134
(8CL	(4A 4f
8DJ	.
8BB-L	4d) 4f 4g
8BBJ	.
8CL)	4e 4cc
8CC'J	.
=135	=135
8DD'L	(4g 4b-
(8c#J	.
8eL	4f) 4a
8dJ	.
8cL	4e 4g 4cc
8B-J	.
=136	=136
8AL	(4cc
8fJ	.
8GL	4b-
8eJ	.
8FL	4a)
8fJ)	.
=137	=137
*^	*
(8BB-L	2.BB-	(4dd 4ff
8DJ	.	.
8F#L	.	8ccL 8ee
8GJ	.	8b-J 8dd
8AL	.	8aL 8cc
8B-J)	.	8gJ) 8b-
*v	*v	*
=138	=138
(8CL	(4f 4a
8DJ	.
8BB-L	4g) 4b-
8GGJ	.
8CL	4B- 4e 4g
8CCJ)	.
=139	=139
4FF	4A 4f
4F	4r
*-	*-
